X:136
T:Slip simple chords 9
M:3/4
L:1/8
K:Em
B/A/[G2G,2B,2D2]G G2 | ed BG [A2C,2E,2G,2] | AA BG FE | D[G2G,2B,2D2]G G2 | ed ef [g2G,2B,2D2] |
GG AG FE | D[G2G,2B,2D2]G G2 | ed BG [A2C,2E,2G,2] | AA BG FE |
D[G2G,2B,2D2]G G2 | ed ef [g2G,2B,2D2] | GG AG FE | D[dG,B,D] Bd ec |
ed BG [A2C,2E,2G,2] | AA BG FE | D[dG,B,D] Bd ec | ed ef [g2G,2B,2D2] |
GG AG FE | D[dD,F,A,C] Bd ec | ed BG [A2C,2E,2G,2] | AA BG FE |
D[dG,B,D] Bd ec | ed ef [g2G,2B,2D2] | GG AG FE | D |


